!!!!SEGMENT: pl-gd--ee-1638--007-009_marenzio-luca--il-terzo-libro-de-madrigalia-a-sei-voci-puote-aguagliar.krn
!!!cenid: 15xx:850
!!!COM: Marenzio, Luca
!!!COM-rismID: pe30003955
!!!CDT: ~1553-1599/08/22
!!!CNT: Italian
!!!GTL: Il Terzo Libro de madrigalia a sei voci
!!!OTL: Puote aguagliar
!!!OMV: 009
!!!PDT: 1585
!!!AGN:
!!!SMS-siglum: PL-GD
!!!SMS-shelfmark: Ee 1638
!!!SMS-variant:
!!!SMS-altvar:
!!!SMS-shelfwork: 007-009 G
!!!NIFC-rismSourceID: 990039250
!!!NIFC-islandoraID: pl-gd:57883
!!!URL-pdf-islandora: https://repozytorium.nifc.pl/islandora/object/pl-gd%3A57883/datastream/PDF/view
!!!URL-scan: https://polish.musicsources.pl/pl/lokalizacje/galeria/klocki-introligatorskie/655 @EN{Scan on Polish Music Sources Website} @PL{Skany w portalu Dziedzictwo Muzyki Polskiej w otwartym dostępie}
!!!ONB-nifc: UWAGA: zbiór na stronach: Canto: s. 694-704, Alto: s. 542-552, Tenore: s. 390-400, Basso: s. 237-248, Quinto: s. 85-96, Sesto: s. 3-14. Uwaga: utwory podzielone wg tytułów w spisach treści dostępnych na końcu każdej księgi głosowej.
!!!AIN: 1 alto 1 bass 2 soprn 2 tenor
!!!key: C:ion
**kern	**text	**kern	**text	**kern	**text	**kern	**text	**kern	**text	**kern	**text
*part6	*part6	*part5	*part5	*part4	*part4	*part3	*part3	*part2	*part2	*part1	*part1
*staff6	*staff6	*staff5	*staff5	*staff4	*staff4	*staff3	*staff3	*staff2	*staff2	*staff1	*staff1
*I"SESTO	*	*I"QUINTO	*	*I"BASSO	*	*I"TENORE	*	*I"ALTO	*	*I"CANTO	*
*I'voce umana 2	*	*I'voce umana 1	*	*I'B	*	*I'T	*	*I'A	*	*I'S	*
*Itenor	*	*Isoprn	*	*Ibass	*	*Itenor	*	*Ialto	*	*Isoprn	*
*ICvox	*	*ICvox	*	*ICvox	*	*ICvox	*	*Cvox	*	*ICvox	*
*clefC3	*	*clefG2	*	*clefF3	*	*clefC3	*	*clefC2	*	*clefG2	*
*k[]	*	*k[]	*	*k[]	*	*k[]	*	*k[]	*	*k[]	*
*C:ion	*	*C:ion	*	*C:ion	*	*C:ion	*	*C:ion	*	*C:ion	*
*M2/1	*	*M2/1	*	*M2/1	*	*M2/1	*	*M2/1	*	*M2/1	*
*met(c)	*	*	*	*	*	*	*	*	*	*	*
=1-	=1-	=1-	=1-	=1-	=1-	=1-	=1-	=1-	=1-	=1-	=1-
!LO:TX:a:t=Seconda parte.	!	!	!	!	!	!	!	!	!	!	!
*	*	*met(c)	*	*	*	*	*	*	*	*	*
!	!	!LO:TX:b:t=PVot`aguagliar	!	!	!	!	!	!	!	!	!
*	*	*	*	*met(c)	*	*met(c)	*	*	*	*	*
!	!	!	!	!	!	!LO:TX:a:t=Seconda parte.	!	!LO:TX:a:t=Seconda parte.	!	!	!
*	*	*	*	*	*	*	*	*met(c)	*	*met(c)	*
!	!	!	!	!	!	!	!	!	!	!LO:TX:a:t=Seconda parte.	!
1r	.	1r	.	1r	.	0r	.	2r	.	2dd\	PVot`
.	.	.	.	.	.	.	.	2g\	PVot`	4dd\	ag-
.	.	.	.	.	.	.	.	.	.	4dd\	-uag-
2B/	PVot`-	4r	.	2G\	PVot`	.	.	4g\	ag-	2dd\	-liar
.	.	4.gg\	l`al-	.	.	.	.	4g\	-uag-	.	.
4B/	-ag-	.	.	4G\	ag-	.	.	2g\	-liar	4r	.
.	.	8ff\	-to	.	.	.	.	.	.	.	.
4B/	-uag-	4ee\	pia-	4G\	-uag-	.	.	.	.	4.gg\	l`al-
=2-	=2-	=2-	=2-	=2-	=2-	=2-	=2-	=2-	=2-	=2-	=2-
1B	-liar	4dd\	-cer	1G	-liar	2g\	PVot`	2bn\	puot`	.	.
.	.	.	.	.	.	.	.	.	.	8ff\	-to
.	.	4.gg\	l`al-	.	.	.	.	.	.	4ee\	pia-
.	.	.	.	.	.	4g\	ag-	4b\	ag-	4dd\	-cer
.	.	8ff\	-to	.	.	.	.	.	.	.	.
.	.	4ee\	pia-	.	.	4g\	-uag-	4b\	-uag-	4.gg\	/l`al-
4.B/	l`al-	4dd\	-cer	4.G\	l`al-	2g\	-liar	4b\	-liar	.	.
.	.	.	.	.	.	.	.	.	.	8ff\	-to
.	.	4gg\	Puot`	.	.	.	.	4.g\	l`al-	4ee\	pia-
8c/	-to	.	.	8A\	-to	.	.	.	.	.	.
4d\	pia-	4gg\	agua-	4B\	pia-	4r	.	.	.	4dd\	-cer/
.	.	.	.	.	.	.	.	8f\	-to	.	.
4c/	-cer	4gg\	-ag-	4c\	-cer	4.g\	l`al-	4e/	pia-	4r	.
=3-	=3-	=3-	=3-	=3-	=3-	=3-	=3-	=3-	=3-	=3-	=3-
4.B/	l`al-	2gg\	-liar	4.G\	l`al-	.	.	4d/	-cer	4r	.
.	.	.	.	.	.	8f\	-to	.	.	.	.
!	!	!	!	!	!	!	!	!	!	!LO:SIC:v:t=custos gg	!
.	.	.	.	.	.	4e\	pia-	4.g\	l`al-	4gg\	Puo-
8c/	-to	.	.	8A\	-to	.	.	.	.	.	.
!	!	!LO:SIC:v:t=custos gg	!	!	!	!	!	!	!	!	!
!	!	!	!	!	!	!	!	!	!	!LO:LB:g=original	!
4d\	pia-	2r	.	4B\	pia-	4d\	-cer	.	.	4gg\	-t`ag-
!	!	!	!	!	!	!	!	!LO:SIC:v:t=custos e	!	!	!
.	.	.	.	.	.	.	.	8f\	-to	.	.
!	!	!	!	!LO:SIC:v:t=custos G	!	!	!	!	!	!	!
4c/	-cer	.	.	4c\	-cer	4.g\	/PVot`	4e/	pia-	4gg\	-uag-
2B/	Puot`-	4r	.	2G\	Puot`	.	.	4d/	-cer	2gg\	-liar
.	.	.	.	.	.	8f\	ag-	.	.	.	.
.	.	4.gg\	l`al-	.	.	4e\	-uag-	4g\	Puot`	.	.
4B/	-ag-	.	.	4G\	ag-	4d\	-liar/	4g\	ag-	2r	.
.	.	8ff\	-to	.	.	.	.	.	.	.	.
!LO:SIC:v:t=custos B	!	!	!	!	!	!	!	!	!	!	!
4B/	-ua-	4ee\	pia-	4G\	-uag-	4r	.	4g\	-uag-	.	.
=4-	=4-	=4-	=4-	=4-	=4-	=4-	=4-	=4-	=4-	=4-	=4-
1B	-gliar	2dd\	-cer	1G	-liar	2d\	Puot`	1g	-liar	4r	.
.	.	.	.	.	.	.	.	.	.	4.dd\	Pal-
.	.	4r	.	.	.	4d\	a-	.	.	.	.
.	.	.	.	.	.	.	.	.	.	8cc\	-to
!	!	!	!	!	!	!LO:SIC:v:t=custos d	!	!	!	!	!
.	.	4.dd\	l`al-	.	.	4d\	-gua-	.	.	4b/	pia-
!	!	!	!	!	!	!LO:LB:g=original	!	!	!	!	!
2r	.	.	.	4.D/	Pal-	1d	-gliar	4.f#X\	l`al-	4a/	-cer
.	.	8cc\	-to	.	.	.	.	.	.	.	.
.	.	4b/	pia-	.	.	.	.	.	.	4.dd\	l`al-
.	.	.	.	8E/	-to	.	.	8g\	-to	.	.
4.d\	Pal-	4a/	-cer	4F#X/	pia-	.	.	4a\	pia-	.	.
.	.	.	.	.	.	.	.	.	.	8cc\	-to
.	.	4dd\	ch`io	2G\	-cer	.	.	2d/	-cer	4b\	pia-
8c/	-to	.	.	.	.	.	.	.	.	.	.
=5-	=5-	=5-	=5-	=5-	=5-	=5-	=5-	=5-	=5-	=5-	=5-
4B/	pia-	2g/	pro-	.	.	0r	.	.	.	4dd\	-cer
4.c/	-cer	.	.	4E/	ch`io	.	.	4c/	ch`io	4ee\	ch`io
.	.	2dd\	-uo	2D/	pro-	.	.	2d/	pro-	2ff\	pro-
8B/	ch`io	.	.	.	.	.	.	.	.	.	.
4B/	pro-	.	.	.	.	.	.	.	.	.	.
2c/	-uo	1r	.	1C	-uo	.	.	1g	-uo	1ee	-uo
1g\	Qua(n)-	.	.	.	.	.	.	.	.	.	.
=6-	=6-	=6-	=6-	=6-	=6-	=6-	=6-	=6-	=6-	=6-	=6-
.	.	1cc	Qua(n)-	0r	.	1c	Quan-	2r	.	2r	.
2c/	-to	.	.	.	.	.	.	2e/	Quan-	2g/	Quan-
1r	.	2cc#X\	-to	.	.	2A/	-do	2e/	-do	2a/	-do
.	.	2dd\	ſul	.	.	2G/	ſu`l-	2g\	ſu`l-	2b/	ſu`l-
=7-	=7-	=7-	=7-	=7-	=7-	=7-	=7-	=7-	=7-	=7-	=7-
00r	.	1ee	di	00r	.	1c	-di	1g	-di	1cc	-di
.	.	4ccny\	la	.	.	4F/	la	4fny\	la	4a/	la
!	!	!	!	!	!	!	!	!LO:SIC:v:t=custos a	!	!	!
.	.	2ff\	ca-	.	.	2f\	ca-	2a\	ca-	2cc\	ca-
!	!	!	!	!	!	!	!	!LO:LB:g=original	!	!	!
.	.	4ee\	-ra	.	.	4c/	-ra	4g\	-ra	4cc\	-ra
=8-	=8-	=8-	=8-	=8-	=8-	=8-	=8-	=8-	=8-	=8-	=8-
.	.	4dd\	Don-	.	.	4d\	Don-	4f#X\	Don-	4a/	Don-
!	!	!LO:SIC:v:t=custos dd	!	!	!	!	!	!	!	!	!
.	.	4cc#X\	-na	.	.	4e\	-na	4g\	-na	4g/	-na
!	!	!LO:LB:g=original	!	!	!	!	!	!	!	!	!
.	.	1dd	mia	.	.	1d	mia	1f#X	mia	1a	mia
.	.	4dd\	Mi	.	.	4d\	Mi	4f#\	Mi	4a/	Mi
.	.	4dd\	s`ap-	.	.	4B/	s`ap-	4g\	s`ap-	4b/	s`ap-
=9-	=9-	=9-	=9-	=9-	=9-	=9-	=9-	=9-	=9-	=9-	=9-
00r	.	4.ccny\	-pre-	00r	.	4.c/	-pre-	4.g\	-pre-	4.ee\	-pre-
.	.	8cc\	-ſen-	.	.	8c/	-ſen-	8g\	-ſen-	8ee\	-ſen-
.	.	4cc\	-t`	.	.	4c/	-ta	4g\	-ta	4ee\	-ta
.	.	4b/	in	.	.	4G/	in	4g\	in	4dd\	in
.	.	2.a/	ſi	.	.	2.A/	ſi	2.e/	ſi	2.cc#X\	ſi
!	!	!	!	!	!	!LO:SIC:v:t=custos A	!	!	!	!	!
.	.	4a/	ſo-	.	.	4A/	ſo-	4e/	ſo-	4cc#\	ſo-
=10-	=10-	=10-	=10-	=10-	=10-	=10-	=10-	=10-	=10-	=10-	=10-
!	!	!	!	!	!	!LO:LB:g=original	!	!	!	!	!
.	.	2.a/	-a-	.	.	2A/	-a-	2e/	-a-	2ccny\	-a-
.	.	.	.	.	.	2d\	-ui	2fny\	-ui	2dd\	-ui
.	.	4b/	-ui	.	.	.	.	.	.	.	.
.	.	1cc	te(m)-	.	.	1c	tem-	1g	tem-	1ee	tem-
=11-	=11-	=11-	=11-	=11-	=11-	=11-	=11-	=11-	=11-	=11-	=11-
2r	.	1cc	-pre	2r	.	2.c/	-pre	1g	-pre	1ee	-pre
1g	Fal-	.	.	1c	Fal-	.	.	.	.	.	.
.	.	.	.	.	.	4d\	.	.	.	.	.
.	.	2r	.	.	.	1e	.	1c	Fal-	1cc	Fal-
1c\	-la-	1cc\	Fal-	1A\	-la-	.	.	.	.	.	.
=12-	=12-	=12-	=12-	=12-	=12-	=12-	=12-	=12-	=12-	=12-	=12-
.	.	.	.	.	.	2r	.	1e	-la-	2a/	-la-
!	!	!	!	!	!	!	!	!	!	!LO:SIC:v:t=custos cc	!
2B/	-ce	1ee	-la-	2G#X\	ce	2e\	Fal-	.	.	2b/	-ce
!	!	!	!	!	!	!	!	!	!	!LO:LB:g=original	!
2r	.	.	.	0A	ſo-	2e\	-la-	1a	ce	2cc#X\	ſo-
2.a\	ſo-	2ff\	-ce	.	.	2d\	ce	.	.	2.dd\	.
=13-	=13-	=13-	=13-	=13-	=13-	=13-	=13-	=13-	=13-	=13-	=13-
.	.	2ee\	ſo-	.	.	1e	ſo-	1a	ſo-	.	.
8g\	.	.	.	.	.	.	.	.	.	8cc#X\	.
8f\	.	.	.	.	.	.	.	.	.	8b\	.
2e\	.	2a/	-gno	.	.	.	.	.	.	2cc#X\	.
!	!	!	!	!	!	!	!	!LO:SIC:v:t=custos a	!	!	!
1d	-gno	2r	.	2D/	-gno	1f#X	-gno	2a\	-gno	1dd	-gno
!	!	!	!	!	!	!	!	!LO:LB:g=original	!	!	!
.	.	2a/	a	4r	.	.	.	4r	.	.	.
.	.	.	.	2d\	a	.	.	2a\	a	.	.
=14-	=14-	=14-	=14-	=14-	=14-	=14-	=14-	=14-	=14-	=14-	=14-
!LO:LB:g=original	!	!	!	!	!	!	!	!	!	!	!
4r	.	2dd\	che	.	.	00r	.	.	.	00r	.
!	!	!	!	!LO:SIC:v:t=custos c	!	!	!	!	!	!	!
2g\	a	.	.	4B\	che	.	.	4d/	che	.	.
!	!	!LO:SIC:v:t=custos a	!	!	!	!	!	!	!	!	!
!	!	!	!	!LO:LB:g=original	!	!	!	!	!	!	!
.	.	2ee\	ſta-	2c\	ſta-	.	.	4g\	ſta-	.	.
4e\	che	.	.	.	.	.	.	2a\	-bil	.	.
!	!	!LO:LB:g=original	!	!	!	!	!	!	!	!	!
2f\	ſta-	4a/	-bil	4Fny/	-bil	.	.	.	.	.	.
.	.	4b/	non	4Gny\	non	.	.	8g\	.	.	.
.	.	.	.	.	.	.	.	8f\	.	.	.
4c\	-bil	1cc\	tro-	2A\	tro-	.	.	4e\	.	.	.
4d\	non	.	.	.	.	.	.	4f#X\	non	.	.
=15-	=15-	=15-	=15-	=15-	=15-	=15-	=15-	=15-	=15-	=15-	=15-
2e\	tro-	.	.	1G	-uo	.	.	2g\	tro-	.	.
2d\	-uo	2b/	-uo	.	.	.	.	2g\	-uo	.	.
2c/	Quan-	4ee\	Qua(n)-	4E/	Qua(n)-	.	.	4g\	Qua(n)-	.	.
.	.	2cc\	-to	2F/	-to	.	.	2a\	-to	.	.
4f\	-to	.	.	.	.	.	.	.	.	.	.
4d\	mi	4b/	mi	4G\	mi	.	.	4g\	mi	.	.
=16-	=16-	=16-	=16-	=16-	=16-	=16-	=16-	=16-	=16-	=16-	=16-
2d\	dai	2a/	dai	2D/	dai	4r	.	2f#X\	dai	00r	.
.	.	.	.	.	.	4d\	che	.	.	.	.
2r	.	2a/	che	4d\	che	2f#X\	ſta-	4r	.	.	.
.	.	.	.	2d\	ſta-	.	.	4a\	che	.	.
1r	.	4dd\	ſta-	.	.	4f#\	-te o	4.b\	ſta-	.	.
.	.	4g/	-te o	4e\	-te o	4g\	ver-	.	.	.	.
.	.	.	.	.	.	.	.	8b\	-te o	.	.
.	.	4a/	ver-	4c\	ver-	4e\	-no-	4cc\	ver-	.	.
!	!	!	!	!	!	!	!	!LO:SIC:v:t=custos a	!	!	!
.	.	4b/	-no	4B\	-no	2g\	-ſi-	4g\	-no-	.	.
=17-	=17-	=17-	=17-	=17-	=17-	=17-	=17-	=17-	=17-	=17-	=17-
!	!	!	!	!	!	!	!	!LO:LB:g=original	!	!	!
1r	.	1cc	-ſi-	1A	-ſi-	.	.	1a	-ſi-	.	.
.	.	.	.	.	.	8f#X\	.	.	.	.	.
!	!	!	!	!	!	!LO:SIC:v:t=custos f	!	!	!	!	!
.	.	.	.	.	.	8e\	.	.	.	.	.
!	!	!	!	!	!	!LO:LB:g=original	!	!	!	!	!
.	.	.	.	.	.	2f#X\	.	.	.	.	.
2r	.	1b	-a	1G	-a	1g	-a	1d	-a	.	.
4g\	Pri-	.	.	.	.	.	.	.	.	.	.
4g\	-ma-	.	.	.	.	.	.	.	.	.	.
=18-	=18-	=18-	=18-	=18-	=18-	=18-	=18-	=18-	=18-	=18-	=18-
4g\	-ve-	4ee\	Pri-	2C/	Pri-	1r	.	1r	.	4gg\	Pri-
8e\	-ra	4ee\	-ma-	.	.	.	.	.	.	4gg\	-ma-
8f\	per	.	.	.	.	.	.	.	.	.	.
2g\	me	4ee\	-ve-	2C/	-ma-	.	.	.	.	4gg\	-ue-
.	.	8cc\	-ra	.	.	.	.	.	.	8ee\	-ra
!	!	!LO:SIC:v:t=custos ee	!	!	!	!	!	!	!	!	!
.	.	8dd\	per	.	.	.	.	.	.	8ff\	per
!	!	!LO:LB:g=original	!	!	!	!	!	!	!	!	!
1r	.	1ee	me	2C/	-ve-	4e\	Pri-	4g\	Pri-	1gg	me
.	.	.	.	.	.	4e\	-ma-	4g\	-ma-	.	.
!	!	!	!	!LO:SIC:v:t=custos c	!	!	!	!	!	!	!
.	.	.	.	2C/	-ra	4e\	-ue-	4g\	-ue-	.	.
.	.	.	.	.	.	8c\	-ra	8e\	-ra	.	.
.	.	.	.	.	.	8d\	per	8fny\	per	.	.
=19-	=19-	=19-	=19-	=19-	=19-	=19-	=19-	=19-	=19-	=19-	=19-
!	!	!	!	!LO:LB:g=original	!	!	!	!	!	!	!
4e\	/Pri-	2r	.	4c\	Pri-	2e\	me	2g\	me	2r	.
!LO:SIC:v:t=custos e	!	!	!	!	!	!	!	!	!	!	!
4e\	-ma-	.	.	4c\	-ma-	.	.	.	.	.	.
!LO:LB:g=original	!	!	!	!	!	!	!	!	!	!	!
4e\	-ue-	4cc\	Pri-	4c\	-ve-	2r	.	2r	.	4ee\	/Pri-
8c\	-ra	4cc\	-ma-	8A\	-ra	.	.	.	.	4ee\	-ma-
8d\	per	.	.	8B\	per	.	.	.	.	.	.
2e\	me/	4cc\	-ve-	2c\	me	4g\	Pri-	4e/	/Pri-	4ee\	-ue-
.	.	8ee\	-ra	.	.	4g\	-ma-	4e/	-ma-	8cc\	-ra
.	.	8dd\	per	.	.	.	.	.	.	8dd\	per
4g\	Pri-	2cc\	me	2C/	ſa-	4g\	-ue-	4e/	-ue-	2ee\	me/
4g\	-ma-	.	.	.	.	8e\	-ra	8c/	-ra	.	.
.	.	.	.	.	.	8fny\	per	8d/	per	.	.
=20-	=20-	=20-	=20-	=20-	=20-	=20-	=20-	=20-	=20-	=20-	=20-
4g\	-ue-	4cc\	/Pri-	1.C	-reb-	1.g	me	2e/	me/	4ee\	Pri-
8e\	-ra	4ee\	-ma-	.	.	.	.	.	.	4gg\	-ma-
8f\	per	.	.	.	.	.	.	.	.	.	.
!	!	!	!	!	!	!	!	!	!	!LO:LB:g=original	!
2g\	me	4ee\	-ve-	.	.	.	.	2cc\	ſar-	4gg\	-ue-
.	.	8cc\	-ra	.	.	.	.	.	.	8ee\	-ra
.	.	8dd\	per	.	.	.	.	.	.	8ff\	per
2e\	ſa-	2ee\	me/	.	.	.	.	2cc\	-eb-	4gg\	me
.	.	.	.	.	.	.	.	.	.	4g/	ſar-
2d\	-reb-	4r	.	2D/	-be	2f\	ſar-	2a\	-be	2dd\	-eb-
.	.	4dd\	ſa-	.	.	.	.	.	.	.	.
=21-	=21-	=21-	=21-	=21-	=21-	=21-	=21-	=21-	=21-	=21-	=21-
2G/	-be	2gg\	-reb-	2.E/	ſem-	2e\	-eb-	0g	ſem-	2b/	-be
2.g\	ſem-	2gg\	-be	.	.	2e\	-be	.	.	2.cc\	ſem-
.	.	.	.	4F/	.	.	.	.	.	.	.
.	.	1gg	ſem-	1G	.	1d	ſem-	.	.	.	.
8f\	.	.	.	.	.	.	.	.	.	8b/	.
8e\	.	.	.	.	.	.	.	.	.	8a/	.
2d\	.	.	.	.	.	.	.	.	.	2b/	.
=22-	=22-	=22-	=22-	=22-	=22-	=22-	=22-	=22-	=22-	=22-	=22-
1e	-pre	1ee	-pre	1C	-pre	1c	-pre	2g\	-pre	1cc	-pre
.	.	.	.	.	.	.	.	4g\	Pri-	.	.
.	.	.	.	.	.	.	.	4g\	-ma-	.	.
4e\	Pri-	2r	.	4c\	Pri-	1r	.	4g\	-ve-	2r	.
!	!	!	!	!	!	!	!	!LO:SIC:v:t=custos e	!	!	!
4e\	-ma-	.	.	4c\	-ma-	.	.	8e\	-ra	.	.
!	!	!	!	!	!	!	!	!LO:LB:g=original	!	!	!
.	.	.	.	.	.	.	.	8f\	per	.	.
4e\	-ue-	4cc\	Pri-	4c\	-ve-	.	.	4g\	me	4ee\	Pri-
8c\	-ra	4cc\	-ma-	8A\	-ra	.	.	4r	.	4ee\	-ma-
!LO:SIC:v:t=custos e	!	!	!	!	!	!	!	!	!	!	!
8d\	per	.	.	8B\	per	.	.	.	.	.	.
=23-	=23-	=23-	=23-	=23-	=23-	=23-	=23-	=23-	=23-	=23-	=23-
!	!	!LO:SIC:v:t=custos ee	!	!	!	!	!	!	!	!	!
!LO:LB:g=original	!	!	!	!	!	!	!	!	!	!	!
2e\	me	4cc\	-ve-	2c\	me	4g\	Pri-	4e/	Pri-	4ee\	-ve-
!	!	!	!	!	!	!LO:SIC:v:t=custos g	!	!	!	!	!
!	!	!LO:LB:g=original	!	!	!	!	!	!	!	!	!
.	.	8ee\	-ra	.	.	4g\	-ma-	4e/	-ma-	8cc\	-ra
.	.	8dd\	per	.	.	.	.	.	.	8dd\	per
!	!	!	!	!LO:SIC:v:t=custos C	!	!	!	!	!	!	!
!	!	!	!	!	!	!LO:LB:g=original	!	!	!	!	!
4g\	Pri-	2cc\	me	2C/	ſa-	4g\	-ve-	4e/	-ve-	2ee\	me
4g\	-ma-	.	.	.	.	8e\	-ra	8c/	-ra	.	.
.	.	.	.	.	.	8f\	per	8d/	per	.	.
!	!	!	!	!LO:LB:g=original	!	!	!	!	!	!	!
4g\	-ue-	4cc\	/Pri-	1.C	-reb-	1.g	me	2e/	me	4ee\	/Pri-
8e\	-ra	4ee\	-ma-	.	.	.	.	.	.	4gg\	-ma-
8f\	per	.	.	.	.	.	.	.	.	.	.
!	!	!	!	!	!	!	!	!	!	!LO:SIC:v:t=custos ee	!
2g\	me	4ee\	-ve-	.	.	.	.	2cc\	ſar-	4gg\	-ve-
!	!	!	!	!	!	!	!	!	!	!LO:LB:g=original	!
.	.	8cc\	-ra	.	.	.	.	.	.	8ee\	-ra
.	.	8dd\	per	.	.	.	.	.	.	8ff\	per
=24-	=24-	=24-	=24-	=24-	=24-	=24-	=24-	=24-	=24-	=24-	=24-
2e\	ſar-	2ee\	me/	.	.	.	.	2cc\	-eb-	4gg\	me/
.	.	.	.	.	.	.	.	.	.	4g/	ſar-
2d\	-eb-	4r	.	2D/	-be	2f\	ſar-	2a\	-be	2dd\	-eb-
.	.	4dd\	ſar-	.	.	.	.	.	.	.	.
2G/	-be	2gg\	-eb-	2.E/	ſem-	2e\	-eb-	0g	ſem-	2b/	-be
2.g\	ſem-	2gg\	-be	.	.	2e\	-be	.	.	2.cc\	ſem-
.	.	.	.	4F/	.	.	.	.	.	.	.
=25-	=25-	=25-	=25-	=25-	=25-	=25-	=25-	=25-	=25-	=25-	=25-
.	.	1gg	ſem-	1G	.	1d	ſem-	.	.	.	.
8f\	.	.	.	.	.	.	.	.	.	8b/	.
8e\	.	.	.	.	.	.	.	.	.	8a/	.
2d\	.	.	.	.	.	.	.	.	.	2b/	.
0.e	-pre.	0.ee	-pre.	0.C	-pre.	0.c	-pre.	0.g	-pre.	0.cc	-pre.
=26-	=26-	=26-	=26-	=26-	=26-	=26-	=26-	=26-	=26-	=26-	=26-
.	.	.	.	.	.	.	.	.	.	.	.
=-	=-	=-	=-	=-	=-	=-	=-	=-	=-	=-	=-
*-	*-	*-	*-	*-	*-	*-	*-	*-	*-	*-	*-
!!!system-decoration: [(s1,s2,s3,s4,s5,s6)]
!!!ENC: Filip Voros
!!!END: 2022-06-12
!!!ENC: Urszula Świątek
!!!END: 2022-07-22
!!!YEC: Copyright 2022 Narodowy Instytut Fryderyka Chopina (https://polishscores.org)
!!!YEM: Licence CC BY 4.0 (https://creativecommons.org/licenses/by/4.0)
